!!!CDT:
!!!PTL: Scherzi et arie a une, due, tre, et quattro voci per cantare nel clavicembalo ò altro simile istromento
!!!PPP: Venice
!!!PPR: Giacomo Vincenzi
!!!PDT: 1614
!!!RISM: C 2216
!!!rime:
!!!AGN: Madrigal
!!!SCT: Tsg20131a
!!!SCA: Tsg20131a
!!!voices:
!!!COM: Cifra, Antonio
!!!OTL: O sempre, e quando parti e quando torni
**kern	**kern	**text	**kern	**text
*part3	*part2	*part2	*part1	*part1
*staff3	*staff2	*staff2	*staff1	*staff1
*I"Basso continuo	*I"[Canto II]	*	*I"[Canto I]	*
*I'Bc	*I'C II	*	*I'C I	*
*oclefF4	*oclefC1	*	*oclefC1	*
*clefF4	*clefG2	*	*clefG2	*
*k[b-]	*k[b-]	*	*k[b-]	*
*F:	*F:	*	*F:	*
*omet(C)	*omet(C)	*	*omet(C)	*
*M4/4	*M4/4	*	*M4/4	*
=1	=1	=1	=1	=1
!	!	!	!LO:TX:a:t=Aria del Gazzella. A 2 Soprani. [Prima parte.]	!
2G	1r	.	4r	.
.	.	.	4g	"O
[2G	.	.	8bnXL	sem-
.	.	.	8ccJ	.
.	.	.	8bniL	.
.	.	.	8ccJ	.
=2	=2	=2	=2	=2
4G]	2r	.	4.dd	.
4F	.	.	.	.
.	.	.	8cc	-pre, e
4E	4r	.	4.cc	quan-
4D	4d	"O	.	.
.	.	.	8bnX	-do
=3	=3	=3	=3	=3
2.C	8eL	sem-	4cc	par-
.	8dJ	.	.	.
.	8eL	.	4g	-ti
.	8fJ	.	.	.
.	4.g	.	2r	.
4BB-y	.	.	.	.
.	8f	-pre, e	.	.
=4	=4	=4	=4	=4
4AA	4.f	quan-	4r	.
4GG	.	.	4g	e
.	8e	-do	.	.
[2FF	4f	par-	8aL	quan-
.	.	.	8b-yJ	.
.	4f	-ti e	8aL	.
.	.	.	8b-yJ	.
=5	=5	=5	=5	=5
2FF]	4.a	quan-	8ccL	.
.	.	.	8ccJ	.
.	.	.	2dd	-do
.	8b-y	-do	.	.
2EE	2g	tor-	.	.
.	.	.	4cc#i	tor-
=6	=6	=6	=6	=6
2DD	1a	-ni	1dd	-ni
[2D	.	.	.	.
=7	=7	=7	=7	=7
4D]	2r	.	2r	.
4C	.	.	.	.
[2BB-y	4r	.	4r	.
.	[4ff	E-	[4dd	E-
=8	=8	=8	=8	=8
4BB-]	4ff]	.	4dd]	.
4C	2ee-X	-gual-	2cc	-gual-
4D	.	.	.	.
4E	[4dd	-men-	[4b-y	-men-
=9	=9	=9	=9	=9
[1F	4dd]	.	4b-]	.
.	8cc	-te	8a	-te
.	8b-y	cru-	8g	cru-
.	8aL	-de-	8fL	-de-
.	8b-yJ	.	8gJ	.
.	8aL	.	8fL	.
.	8b-yJ	.	8gJ	.
=10	=10	=10	=10	=10
2F]	4cc	.	8aL	.
.	.	.	8gJ	.
.	4.dd	-le, hor	8fL	.
.	.	.	8eJ	.
2G	.	.	4.d	.
.	16ccL	.	.	.
.	16b-yJ	.	.	.
.	4a	.	.	.
.	.	.	8d	-le, hor
=11	=11	=11	=11	=11
2C	4cc	chi	8e	chi
.	.	.	8f	ti
.	4b-y	ti	2g	gui-
2D	2a	gui-	.	.
.	.	.	4f#X	.
=12	=12	=12	=12	=12
4GG	2g	-da?	2g	-da?
2G	.	.	.	.
.	2r	.	4r	.
4F#X	.	.	4dd	Gran
=13	=13	=13	=13	=13
4G	2r	.	4b-y	ma-
4A	.	.	4cc	-ra-
[2B-y	4r	.	[2dd	-vi-
.	4dd	Gran	.	.
=14	=14	=14	=14	=14
4B-]	4b-y	ma-	4dd]	.
4A	4cc	-ra-	4cc	-glia
4G	2dd	-vi-	4b-y	che'l
4F	.	.	4a	mo-
=15	=15	=15	=15	=15
2.E-X	2g	-glia	1b-y	-rir,
.	4g	che'l	.	.
4E-i	4a	mo-	.	.
=16	=16	=16	=16	=16
4D	2b-y	-rir	4dd	che'l
4C	.	.	4ee-X	mo-
2BB-y	4r	.	2ff	-rir
.	4b-y	di-	.	.
=17	=17	=17	=17	=17
2E-X	8gL	-stor-	4r	.
.	8aJ	.	.	.
.	2b-y	.	4ee-X	di-
2F	.	.	2cc	-stor-
.	4a	.	.	.
=18	=18	=18	=18	=18
2BB-y	2b-y	-ni	2dd	-ni
2B-y	2r	.	4r	.
.	.	.	8dd	E
.	.	.	8cc	di
=19	=19	=19	=19	=19
2G	4r	.	4bnX	vi-
.	8g	E	8bni	-ta
.	8f	di	8bni	ca-
2c	4e	vi-	2cc	-gion,
.	8e	-ta	.	.
.	8e	ca-	.	.
=20	=20	=20	=20	=20
2F	2f	-gion,	4r	.
.	.	.	8a	<E
.	.	.	8g	di
2D	4r	.	4f#X	vi-
.	8dd	<E	8f#i	-ta
.	8cc	di	8f#i	ca-
=21	=21	=21	=21	=21
2G	4b-y	vi-	2g	-gion>
.	8bnX	-ta	.	.
.	8bni	ca-	.	.
[2C	4.cc	-gion>	4r	.
.	.	.	4g	sia
.	8b-i	sia	.	.
=22	=22	=22	=22	=22
4C]	8a	l'ho-	4cc	l'ho-
.	8g	-mi-	.	.
4C	2g	-ci-	4b-y	-mi-
2D	.	.	2a	-ci-
.	4f#X	.	.	.
=23	=23	=23	=23	=23
4GG	4g	-da,	2g	-da,
2G	4b-y	Gran	.	.
.	4g	ma-	2r	.
4F#X	4a	-ra-	.	.
=24	=24	=24	=24	=24
4G	4b-y	-vi-	4r	.
4A	8aL	.	4ff	Gran
.	8gJ	.	.	.
[2B-y	2f	-glia	4dd	ma-
.	.	.	4ee	-ra-
=25	=25	=25	=25	=25
4B-]	1r	.	2ff	-vi-
4A	.	.	.	.
4G	.	.	2b-y	-glia
4F	.	.	.	.
=26	=26	=26	=26	=26
1E-X	4b-y	che'l	1r	.
.	4a	mo-	.	.
.	2g	-rir,	.	.
=27	=27	=27	=27	=27
4D	2r	.	4f	che'l
4C	.	.	4e-X	mor-
2BB-y	4dd	<che'l	2d	-ri
.	4cc	mo-	.	.
=28	=28	=28	=28	=28
2E-X	4.b-y	-rir>	4g	di-
.	.	.	2b-y	-stor-
.	8cc	di-	.	.
2F	2cc	-stor-	.	.
.	.	.	4a	.
=29	=29	=29	=29	=29
2BB-y	1b-y	-ni	2b-y	-ni
2B-y	.	.	4r	.
.	.	.	8f	E
.	.	.	8f	di
=30	=30	=30	=30	=30
2G	4r	.	2.g	vi-
.	8b-y	E	.	.
.	8b-y	di	.	.
2c	[2cc	vi-	.	.
.	.	.	8g	-ta
.	.	.	8g	ca-
=31	=31	=31	=31	=31
2F	4cc]	.	8aL	-gion
.	.	.	8b-yJ	.
.	8cc	-ta	8aL	.
.	8cc	ca-	8gJ	.
2D	8ddL	-gion	8fL	.
.	8ee-XJ	.	8gJ	.
.	8ddL	.	8fL	.
.	8ccJ	.	8eJ	.
=32	=32	=32	=32	=32
2G	8b-yL	.	4d	.
.	8ccJ	.	.	.
.	8b-yL	.	4d	sia
.	8aJ	.	.	.
[2C	4g	.	4e-X	l'ho-
.	4g	sia	4c	-mi-
=33	=33	=33	=33	=33
2C]	4cc	l'ho-	8e-XL	-ci-
.	.	.	8fJ	.
.	4b-y	-mi-	2g	.
2D	2a	-ci-	.	.
.	.	.	4f#X	.
=34	=34	=34	=34	=34
1GG	1g	-da.	1g	-da.
=35||	=35||	=35||	=35||	=35||
!	!	!	!LO:TX:a:t=Seconda parte.	!
2G	1r	.	2dd	Tu
[2G	.	.	2r	.
=36	=36	=36	=36	=36
4G]	2g	Tu	4r	.
4F	.	.	8g	di
.	.	.	8a	sal-
4E	2r	.	4.bnX	-var-
4D	.	.	.	.
.	.	.	8a	-mi
=37	=37	=37	=37	=37
2.C	2r	.	2cc	cer-
.	4r	.	2g	-chi?
4BB-y	8c	di	.	.
.	8d	sal-	.	.
=38	=38	=38	=38	=38
4AA	4.e	-var-	2r	.
4GG	.	.	.	.
.	8d	-mi	.	.
2FF	4f	cer-	4a	a
.	4f	-chi? a	[4cc	qua-
=39	=39	=39	=39	=39
2F	4.a	qua-	8cc]	.
.	.	.	8a	-li
.	.	.	2dd	scor-
.	8f	-li	.	.
2E	2g	scor-	.	.
.	.	.	16ccL	.
.	.	.	16b-y	.
.	.	.	16a	.
.	.	.	16gJ	.
=40	=40	=40	=40	=40
2.D	2f#X	-ni,	2a	-ni,
.	2r	.	4r	.
4D	.	.	4dd	A
=41	=41	=41	=41	=41
4D	2r	.	4ff	qua-
4C	.	.	4ee-X	-li
[2BB-y	4r	.	[2dd	pe-
.	4dd	A	.	.
=42	=42	=42	=42	=42
4BB-]	4ff	qua-	4dd]	.
4C	4ee-X	-li	4cc	-ne è
4D	[2dd	pe-	4b-y	ri-
4E	.	.	4g	-ser-
=43	=43	=43	=43	=43
[1F	4dd]	.	8aL	-va-
.	.	.	8b-yJ	.
.	4cc	-ne è	8aL	.
.	.	.	8b-yJ	.
.	4a	ri-	2cc	.
.	4b-y	-ser-	.	.
=44	=44	=44	=44	=44
2F]	8ccL	-va-	8fL	-ta Ar-
.	8b-yJ	.	8gJ	.
.	8b-yL	.	8fL	.
.	8aJ	.	8eJ	.
2G	[2b-y	.	2d	.
=45	=45	=45	=45	=45
2C	4b-]	.	16eL	-mi-
.	.	.	16d	.
.	.	.	16e	.
.	.	.	16fJ	.
.	16aL	-ta Ar-	2g	.
.	16b-y	.	.	.
.	16cc	.	.	.
.	16b-yJ	.	.	.
2D	2a	-mi-	.	.
.	.	.	4f#X	.
=46	=46	=46	=46	=46
4GG	2g	-da?	2g	-da?
2G	.	.	.	.
.	2r	.	4r	.
4F#X	.	.	4a	Co-
=47	=47	=47	=47	=47
4G	2r	.	4b-y	-no-
4A	.	.	4cc	-sco
[2B-y	4r	.	4f	l'ar-
.	4dd	Co-	4d	-ti
=48	=48	=48	=48	=48
4B-]	4ee	-no-	1r	.
4A	4ff	-sco	.	.
4G	2b-y	l'ar-	.	.
4F	.	.	.	.
=49	=49	=49	=49	=49
1E-X	2.g	-ti	1r	.
.	[4b-y	del	.	.
=50	=50	=50	=50	=50
4D	4b-]	.	4r	.
4C	4a	fel-	2ee-X	del
2BB-y	4b-y	-lo-	.	.
.	4f	-ne i-	4dd	fel-
=51	=51	=51	=51	=51
2E-X	8gL	-gno-	4.ee-X	-lo-
.	8aJ	.	.	.
.	2b-y	.	.	.
.	.	.	8cc	-ne i-
2F	.	.	2cc	-gno-
.	4a	.	.	.
=52	=52	=52	=52	=52
2BB-y	1b-y	-te,	1b-y	-te,
2B-y	.	.	.	.
=53	=53	=53	=53	=53
2G	2r	.	8r	.
.	.	.	8dd	Ma
.	.	.	8dd	ben
.	.	.	8dd	può
2c	8r	.	4.eenX	nul-
.	8g	Ma	.	.
.	8g	ben	.	.
.	8g	può	8dd	-la
=54	=54	=54	=54	=54
2F	4.a	nul-	8cc	chi
.	.	.	8b-y	mo-
.	.	.	4a	-rir,
.	8g	-la	.	.
2D	8f	chi	8r	.
.	8e	mo-	8a	<Ma
.	4d	-rir,	8a	ben
.	.	.	8a	può
=55	=55	=55	=55	=55
2G	8r	.	8b-y	nul-
.	8dd	<Ma	8a	-la
.	8dd	ben	8g	chi
.	8dd	può	8f	mo-
[2C	8ee-X	nul-	2g	-rir>
.	8dd	-la	.	.
.	8cc	chi	.	.
.	8b-y	mo-	.	.
=56	=56	=56	=56	=56
4C]	4.cc	-rir>	4a	non
4C	.	.	2g	puo-
.	8b-y	non	.	.
2D	2a	puo-	.	.
.	.	.	4f#X	.
=57	=57	=57	=57	=57
4GG	2g	-te,	2g	-te,
2G	.	.	.	.
.	2r	.	2r	.
4F#X	.	.	.	.
=58	=58	=58	=58	=58
4G	1r	.	4r	.
4A	.	.	4cc	Co-
[2B-y	.	.	4dd	-no-
.	.	.	4dd	-sco
=59	=59	=59	=59	=59
4B-]	4r	.	2ff	l'ar-
4A	4cc	Co-	.	.
4G	4dd	-no-	4b-y	-ti,
4F	4dd	-sco	8r	.
.	.	.	8f	<Co-
=60	=60	=60	=60	=60
2.E-X	4ee-X	l'ar-	4g	-no-
.	4b-y	-ti	4g	-sco
.	2r	.	2b-y	l'ar-
4E-i	.	.	.	.
=61	=61	=61	=61	=61
4D	4b-y	del	2f	-ti>
4C	4cc	fel-	.	.
2BB-y	[2dd	-lo-	4f	del
.	.	.	4f	fel-
=62	=62	=62	=62	=62
2E-X	4dd]	.	8g	-lo-
.	.	.	8a	-ne i-
.	4cc	-ne i-	2b-y	-gno-
2F	2cc	-gno-	.	.
.	.	.	4a	.
=63	=63	=63	=63	=63
2BB-y	1b-y	-te,	1b-y	-te,
2B-y	.	.	.	.
=64	=64	=64	=64	=64
2G	2r	.	8r	.
.	.	.	8d	Ma
.	.	.	8g	ben
.	.	.	8f	può
2c	8r	.	4e	nul-
.	8g	Ma	.	.
.	8cc	ben	4e	-la
.	8b-y	può	.	.
=65	=65	=65	=65	=65
2F	4a	nul-	8f	chi
.	.	.	8g	mo-
.	4a	-la	4a	-rir,
2D	8f	chi	2r	.
.	8g	mo-	.	.
.	4a	-rir,	.	.
=66	=66	=66	=66	=66
2G	2r	.	8bnX	chi
.	.	.	8cc	mo-
.	.	.	4dd	-rir
[2C	8cc	chi	4r	.
.	8dd	mo-	.	.
.	[4ee-X	-rir	4cc	non
=67	=67	=67	=67	=67
2C]	4ee-]	.	8aL	puo-
.	.	.	8gJ	.
.	4cc	non	2g	.
2D	2a	puo-	.	.
.	.	.	4f#X	.
=68	=68	=68	=68	=68
1GGl	1gl	-te.	1gl	-te.
==	==	==	==	==
*-	*-	*-	*-	*-
!!!system-decoration: [*]
!!!RDF**kern: i = editorial accidental
!!!RDF**kern: l = terminal long
!!!ENC: Emiliano Ricciardi
!!!END:
!!!EED: Ricciardi, Emiliano
!!!EEV: 2020/07/28
!!!YEC: Copyright 2018 Emiliano Ricciardi, All Rights Reserved
!!!ONB: Translated from MusicXML on 2020/07/28
!!@@BEGIN:	VERSEDATA
!!@CATALOGNUM:	Tsg20131
!!@LAST_MODIFIED: 2020/07/12
!!@TITLE:		"O sempre, e quando parti e quando torni
!!@CANTO:		XX
!!@OTTAVA:	131
!!@MANUSRC:	G-Al, G-Au, G-Br<sub>2</sub>, G-Es<sub>1</sub>, G-Es<sub>2</sub>, G-Es<sub>3</sub>, G-F, G-Fr, G-Fr<sub>1</sub>, G-Fr<sub>2</sub>, G-Mc<sub>1</sub>, G-Mr, G-Mt, G-N, G-Ol
!!@PRINTSRC:	G-1580CM, G-1581B, G-1581CV, G-1581R, G-1581MR, G-1581P, G-1581V, G-1581V<sub>bis</sub>, G-1582C, G-1582M, G-1582MC, G-1582P, G-1582SC, G-1582SC<sub>bis</sub>, G-1583S, G-1584O, G-1584S, G-1585C, G-1585S, G-1588S, G-1589S, G-1590B, G-1590S, G-1592S, G-1593S, G-1594C, G-1595C, G-1597C, G-1598C, G-1599C, G-1600C, G-1600S, G-1601C, G-1601R, G-1602C, G-1604C, G-1604Cl, G-1604F, G-1604P, G-1606B, G-1606B<sub>bis</sub>, G-1606L, G-1607ZR, G-1608DP, G-1609GC, G-1610M, G-1611S, G-1611V, G-1612P, G-1613M, G-1613P, G-1613V, G-1615P, G-1616M, G-1617P, G-1619B, G-1619V, G-1620M, G-1620S, G-1621R, G-1624I, G-1624MT, G-1625C, G-1625S, G-1625SS, G-1626C, G-1626Co, G-1627M, G-1628T, G-1628Tu, G-1630L, G-1630T, G-1632FT, G-1639CF, G-1642M, G-1643I, G-1644P, G-1644S
!!@@BEGIN:	VERSES
!!@ABOUTIT:
!!@ABOUTEN:
!!@EDITOR:	Angelo Solerti
!!@EDITION_TITLE: Gerusalemme liberata. Poema eroico di Torquato Tasso. Edizione critica sui manoscritti e le prime stampe.
!!@EDITION_LOC:	Florence
!!@EDITION_PUB:	G. Barbera
!!@EDITION_DATE:  1895
!!@EDITION_VOL:
!!@EDITION_PAGE:
!!@TRANSLATOR:	Emiliano Ricciardi and Amyrose McCue Gill
!!@VERSE:
!!	"O sempre, e quando parti e quando torni
!!	Egualmente crudele, or chi ti guida?
!!	Gran maraviglia che ’l morir distorni,
!!	E di vita cagion sia l’omicida.
!!	Tu di salvarmi cerchi? a quali scorni,
!!	A quali pene è riservata Armida?
!!	Conosco l’arti del fellone ignote;
!!	Ma ben può nulla, chi morir non puote.
!!@TVERSE:
!!	Oh always, both when you depart and when you return
!!	Equally cruel man, now who guides you?
!!	A great wonder that death you avert,
!!	And the murderer be the source of life.
!!	You seek to save me? For what disdain,
!!	For what pain is Armida destined?
!!	I know the secret arts of the disloyal man;
!!	But indeed one can do naught, who cannot die.
!!@@END:		VERSES
!!@OTHER_CRIT_ED:  Torquato Tasso, <i>Gerusalemme liberata</i>, ed. Lanfranco Caretti, 2 vols. (Bari: Laterza, 1967).
!!@ATTRIBUTION_ABOUT:
!!@DATING:	mid-1560s through 1570s
!!@DEDICATEE:	Duke Alfonso II d'Este
!!@COMMENTARY:
!!@@END:		VERSEDATA
!!@@BEGIN: SETTING
!!@CATALOGNUM:	Tsg20131a
!!@CANTO:		XX
!!@OTTAVA:	131
!!@TITLE:	O sempre, e quando parti e quando torni
!!@COMPOSER:	Cifra, Antonio
!!@PARTS:	 1-2 (verses 1-4; 5-8) of 4
!!@PRINCEPSTITLE:	Scherzi et arie a une, due, tre, et quattro voci per cantare nel clavicembalo ò altro simile istromento
!!@NORMLOC:	Venice
!!@NORMPUB:	Giacomo Vincenzi
!!@NORMPUBSHORT:	G. Vincenzi
!!@PRINCEPSPUB:	Giacomo Vincenzi
!!@PRINCEPSYEAR:	1614
!!@PRINCEPSRISM:	C 2216
!!@OVOICES:	2+bc
!!@EXTANTVOICES:	2+bc
!!@OMENSURATION:	C
!!@OCLEFS:	C1,C1,F4
!!@OTIME:		
!!@OKEYSIG:	
!!@FINAL:		(G)(G)G
!!@TIMPEDITOR:	Ricciardi, Emiliano
!!@REPRINTS:	
!!@@END: SETTING
